X:1
T:Nearer, My God, To Thee
T:Nearer, My God, To Thee
T:Lowell Mason
T:Sarah Adams and Edward Bickersteth
C:Lowell Mason
Z:Sarah Adams and Edward Bickersteth
%%score [ 1 2 3 4 ]
L:1/8
Q:1/4=110
M:4/4
K:F
V:1 treble nm="Violin I"
V:2 treble nm="Violin II"
V:3 alto nm="Viola"
V:4 bass nm="Violoncello"
V:1
 a4 g2 f2 | f3 d d4 | c4 f2 a2 | g8 | a4 g2 f2 | f3 d d4 | c2 f2 e2 g2 | f8 | f4 f2 f2 | a3 f a4 | %10
 f4 a2 f2 | g3 c c4 | c4 B2 A2 | d3 B B4 | A4 c4 | A8 | A4 G2 F2 | F3 D D4 | C4 F2 A2 | G8 | %20
 A4 G2 F2 | F3 D D4 | C2 F2 ECEG | F8 | c4 d2 c2 | c3 A c4 | c4 d2 c2 | c3 A G4 | A4 G2 F2 | %29
 F3 D D4 | C2 F2 E2 G2 | F8 |] %32
V:2
 F4 E2 F2 | B3 F F4 | A4 F2 F2 | E2 D2 E4 | c4 B2 A2 | d3 B B4 | A4 c4 | c8 | c'4 d'2 c'2 | %9
 c'3 a c'4 | c'4 d'2 c'2 | c'3 a g4 | a4 g2 f2 | f3 d d4 | c2 f2 e2 g2 | f8 | F4 E2 D2 | %17
 D3 B, B,4 | A,4 D2 F2 | E8 | F4 E2 D2 | D3 B, B,4 | A,2 D2 C2 E2 | F6 FG | A4 B2 A2 | A3 F A4 | %26
 A4 B2 A2 | A3 F E4 | F4 E2 D2 | D3 B, B,4 | A,2 C2 C2 E2 | C8 |] %32
V:3
 C4 B,2 A,2 | D3 B, B,4 | C4 C2 C2 | C8 | F4 E2 F2 | B3 F F4 | F2 A2 G2 B2 | A2 G2 F4 | A4 B2 A2 | %9
 A3 c A4 | A4 B2 A2 | G3 F ED C2 | F4 E2 F2 | B3 F F4 | F2 A2 G2 B2 | F8 | F,>F, F,F, G,>G, G,G, | %17
 B,>B, B,B, B,>B, B,B, | F,>F, F,F, F,>F, F,F, | G,>G, G,G, G,>G, G,G, | A,>A, A,A, G,>G, F,F, | %21
 F,>F, F,F, F,>F, F,F, | A,>A, A,A, B,B,B,B, | C8 | F4 F2 F2 | F4 FE F2 | F4 F2 F2 | F3 c BA G2 | %28
 C4 B,2 A,2 | B,3 F, F,4 | F,2 A,2 G,2 B,2 | A,8 |] %32
V:4
 F,4 E,2 D,2 | B,,3 B,, B,,4 | F,,4 A,,2 F,,2 | C,8 | F,4 C,2 D,2 | B,,3 B,, B,,4 | C,4 E,2 C,2 | %7
 F,8 | F,4 F,2 F,2 | F,3 C, C,4 | F,4 D,2 F,2 | E,3 F, C,4 | F,4 C,2 D,2 | B,,3 B,, B,,4 | %14
 C,4 C,4 | F,2 G,2 F,4 | A,>A, A,A, E,>E, E,E, | D,>D, D,D, D,>D, D,D, | F,>F, F,F, C,>C, C,C, | %19
 C,>C, C,C, E,>E, E,E, | F,>F, F,F, E,>E, D,D, | D,>D, D,D, B,,>B,, B,,B,, | C,>C, C,C, C,C,C,C, | %23
 F,8 | F,4 F,2 F,2 | F,3 C, C,4 | F,4 D,2 F,2 | E,3 F, C,4 | F,4 C,2 D,2 | B,,3 B,, B,,4 | %30
 C,4 C,4 | F,8 |] %32

